dist/img/i-viber.svg

<svg fill="none" xmlns="http://www.w3.org/2000/svg">
<circle cx="8" cy="8" r="8" fill="#8E79D0"/>
<g clip-path="url(#clip0)">
<path d="M11.6196 7.18163C11.6318 5.74612 10.4092 4.43014 8.89415 4.24816C8.86402 4.24458 8.83119 4.23915 8.79645 4.23339C8.72143 4.22096 8.64388 4.20819 8.56563 4.20819C8.25512 4.20819 8.17212 4.4263 8.15026 4.5564C8.129 4.68288 8.14929 4.78909 8.2104 4.87223C8.31323 5.01205 8.49415 5.03687 8.63948 5.05678C8.68208 5.06266 8.72227 5.06813 8.75592 5.07569C10.1171 5.37985 10.5755 5.85804 10.7995 7.20766C10.8049 7.24063 10.8074 7.28128 10.81 7.32437C10.8198 7.48571 10.8401 7.82135 11.201 7.82135H11.201C11.2311 7.82135 11.2634 7.81876 11.297 7.81363C11.633 7.76257 11.6225 7.45576 11.6174 7.30834C11.616 7.26682 11.6146 7.22755 11.6181 7.20144C11.6191 7.19485 11.6195 7.18823 11.6196 7.18163Z" fill="white"/>
<path d="M8.47742 3.72133C8.51773 3.72424 8.55591 3.72702 8.58769 3.73189C10.8229 4.07565 11.8509 5.13467 12.1357 7.38737C12.1406 7.42567 12.1413 7.47236 12.1421 7.52182C12.145 7.69781 12.1508 8.06396 12.544 8.07154L12.5562 8.07166C12.6795 8.07166 12.7776 8.03447 12.8478 7.96105C12.9702 7.83302 12.9617 7.64283 12.9548 7.48996C12.9531 7.45246 12.9515 7.41714 12.9519 7.38622C12.9803 5.08229 10.986 2.9931 8.68414 2.91542C8.6746 2.9151 8.66549 2.91562 8.65628 2.91691C8.65177 2.91757 8.64337 2.9184 8.62902 2.9184C8.60607 2.9184 8.57783 2.91642 8.54788 2.91439C8.51167 2.9119 8.47062 2.90906 8.42902 2.90906C8.06244 2.90906 7.99275 3.16961 7.98385 3.32492C7.96328 3.68389 8.31054 3.70914 8.47742 3.72133Z" fill="white"/>
<path d="M12.0278 10.2988C11.9802 10.2625 11.9311 10.2249 11.8851 10.1879C11.6411 9.99145 11.3814 9.81043 11.1303 9.63535C11.0782 9.59906 11.0261 9.56273 10.9742 9.52629C10.6525 9.30037 10.3634 9.19057 10.0902 9.19057C9.72218 9.19057 9.40138 9.39389 9.13659 9.7948C9.01928 9.97254 8.87696 10.0589 8.70156 10.0589C8.59785 10.0589 8.47999 10.0294 8.35132 9.97095C7.31312 9.50016 6.57178 8.77833 6.14786 7.8255C5.94293 7.36497 6.00937 7.06396 6.37003 6.81896C6.57484 6.67995 6.95606 6.42117 6.92906 5.92562C6.89847 5.36288 5.65681 3.66963 5.13364 3.47732C4.91215 3.39587 4.67942 3.39511 4.44068 3.47544C3.83924 3.67762 3.40765 4.03269 3.19244 4.50218C2.98447 4.95585 2.99386 5.48852 3.21961 6.04264C3.8722 7.64471 4.78969 9.04153 5.94671 10.1942C7.07924 11.3225 8.4712 12.2468 10.0839 12.9412C10.2293 13.0037 10.3817 13.0379 10.4931 13.0628C10.531 13.0713 10.5638 13.0786 10.5876 13.0851C10.6008 13.0887 10.6143 13.0906 10.6279 13.0907L10.6406 13.0908C10.6407 13.0908 10.6406 13.0908 10.6407 13.0908C11.3992 13.0908 12.3099 12.3977 12.5897 11.6075C12.8347 10.9156 12.3873 10.5736 12.0278 10.2988Z" fill="white"/>
<path d="M8.81301 5.55142C8.68315 5.55471 8.41288 5.56141 8.31806 5.83667C8.27369 5.9653 8.279 6.07698 8.33387 6.16861C8.41437 6.30307 8.56863 6.34427 8.70892 6.36688C9.21773 6.44853 9.47904 6.72988 9.5313 7.25226C9.55558 7.49582 9.7196 7.66591 9.9302 7.66591H9.93024C9.94579 7.66591 9.9617 7.665 9.97755 7.66307C10.2308 7.63294 10.3536 7.44684 10.3425 7.11003C10.3466 6.7585 10.1626 6.35942 9.84972 6.04154C9.53571 5.72268 9.15726 5.54311 8.81301 5.55142Z" fill="white"/>
</g>
<defs>
<clipPath id="clip0">
<rect x="2.90961" y="2.90906" width="10.1818" height="10.1818" fill="white"/>
</clipPath>
</defs>
</svg>

<svg fill="none" xmlns="http://www.w3.org/2000/svg"><circle cx="8" cy="8" r="8" fill="#8E79D0"/><g clip-path="url(#clip0)" fill="#fff"><path d="M11.62 7.182c.012-1.436-1.21-2.752-2.726-2.934a2.217 2.217 0 0 1-.098-.015 1.417 1.417 0 0 0-.23-.025c-.31 0-.394.218-.416.348a.402.402 0 0 0 .06.316c.103.14.284.165.43.185.042.006.082.011.116.019 1.361.304 1.82.782 2.043 2.132.006.033.008.073.011.116.01.162.03.497.391.497a.64.64 0 0 0 .096-.007c.336-.051.325-.358.32-.506-.001-.041-.002-.08.001-.107a.147.147 0 0 0 .002-.02z"/><path d="M8.477 3.721c.04.003.079.006.11.01 2.236.345 3.264 1.404 3.549 3.656.005.039.005.085.006.135.003.176.009.542.402.55h.012a.386.386 0 0 0 .292-.11c.122-.129.114-.32.107-.472a1.87 1.87 0 0 1-.003-.104c.028-2.304-1.966-4.393-4.268-4.47a.16.16 0 0 0-.028 0 .193.193 0 0 1-.027.002c-.023 0-.051-.002-.081-.004-.036-.002-.077-.005-.119-.005-.367 0-.436.26-.445.416-.02.359.327.384.493.396zm3.551 6.578a7.095 7.095 0 0 1-.143-.111c-.244-.197-.504-.378-.755-.553a50.892 50.892 0 0 1-.156-.109c-.322-.226-.61-.335-.884-.335-.368 0-.689.203-.953.604-.118.178-.26.264-.435.264a.863.863 0 0 1-.35-.088c-1.039-.47-1.78-1.193-2.204-2.146-.205-.46-.139-.761.222-1.006.205-.14.586-.398.56-.893-.032-.563-1.273-2.256-1.796-2.449a1.02 1.02 0 0 0-.693-.002c-.602.203-1.033.558-1.249 1.027-.208.454-.198.987.028 1.54.652 1.603 1.57 3 2.727 4.152 1.132 1.128 2.524 2.053 4.137 2.747.145.063.298.097.41.122l.094.022a.157.157 0 0 0 .04.006h.013c.758 0 1.669-.693 1.949-1.483.245-.692-.203-1.034-.562-1.31zM8.813 5.551c-.13.004-.4.01-.495.286-.044.128-.039.24.016.332.08.134.235.175.375.198.509.082.77.363.822.885.025.244.189.414.4.414l.047-.003c.253-.03.376-.216.364-.553.005-.352-.18-.75-.492-1.068-.314-.32-.693-.499-1.037-.49z"/></g><defs><clipPath id="clip0"><path fill="#fff" d="M2.91 2.909h10.182v10.182H2.91z"/></clipPath></defs></svg>
